svg/300/outlined/nest_remote_comfort_sensor-fill.svg

<svg xmlns="http://www.w3.org/2000/svg" width="48" height="48" viewBox="0 -960 960 960"><path d="M480-171.542q-54.153 0-91.884-37.731-37.73-37.73-37.73-91.883t37.73-91.884q37.731-37.73 91.884-37.73t91.884 37.73q37.73 37.731 37.73 91.884t-37.73 91.883Q534.153-171.542 480-171.542Zm-319.92-461.15-32.846-31.384q69.615-66.768 158.537-104.037Q374.693-805.382 480-805.382q105.307 0 194.229 37.269 88.922 37.269 158.921 104.037l-33.23 31.384q-63.922-60.845-145.075-94.076Q573.691-759.999 480-759.999t-174.845 33.231q-81.153 33.231-145.075 94.076Zm509.995 132.23Q630.537-535.308 582.884-554 535.23-572.693 480-572.693T377.616-554q-47.153 18.692-87.691 53.538l-32.846-31.999q46.385-41.154 102.961-63.385 56.576-22.23 119.96-22.23 63.384 0 119.652 22.23 56.269 22.231 103.038 63.385l-32.615 31.999Z"/></svg>

<svg xmlns="http://www.w3.org/2000/svg" width="48" height="48" viewBox="0 -960 960 960"><path d="M480-171.54q-54.15 0-91.88-37.73t-37.73-91.89q0-54.15 37.73-91.88T480-430.77q54.15 0 91.88 37.73t37.73 91.88q0 54.16-37.73 91.89-37.73 37.73-91.88 37.73ZM160.08-632.69l-32.85-31.39q69.62-66.76 158.54-104.03 88.92-37.27 194.23-37.27 105.31 0 194.23 37.27 88.92 37.27 158.92 104.03l-33.23 31.39Q736-693.54 654.84-726.77 573.69-760 480-760t-174.84 33.23Q224-693.54 160.08-632.69Zm510 132.23q-39.54-34.85-87.2-53.54-47.65-18.69-102.88-18.69T377.62-554q-47.16 18.69-87.7 53.54l-32.84-32q46.38-41.15 102.96-63.39 56.58-22.23 119.96-22.23 63.38 0 119.65 22.23 56.27 22.24 103.04 63.39l-32.61 32Z"/></svg>
